src/pos-icons/undo.svg

<svg height="24" viewBox="0 0 24 24" width="24" xmlns="http://www.w3.org/2000/svg"><path d="m12.5 8c-2.65 0-5.05 1-6.9 2.6l-3.6-3.6v9h9l-3.62-3.62c1.39-1.16 3.16-1.88 5.12-1.88 3.54 0 6.55 2.31 7.6 5.5l2.37-.78c-1.39-4.19-5.32-7.22-9.97-7.22z"/></svg>

<?xml version="1.0" encoding="UTF-8"?><!DOCTYPE svg PUBLIC "-//W3C//DTD SVG 1.1//EN" "http://www.w3.org/Graphics/SVG/1.1/DTD/svg11.dtd"><svg xmlns="http://www.w3.org/2000/svg" xmlns:xlink="http://www.w3.org/1999/xlink" version="1.1" id="mdi-undo" width="24" height="24" viewBox="0 0 24 24"><path d="M12.5,8C9.85,8 7.45,9 5.6,10.6L2,7V16H11L7.38,12.38C8.77,11.22 10.54,10.5 12.5,10.5C16.04,10.5 19.05,12.81 20.1,16L22.47,15.22C21.08,11.03 17.15,8 12.5,8Z" /></svg>
